OBS Studio/Fluent Dark Grey/settings/output.svg

<svg viewBox="64 128 896 896" xmlns="http://www.w3.org/2000/svg"><path d="m772 128c25 0 48.917 5.083 71.75 15.25s42.833 23.833 60 41 30.833 37.167 41 60 15.25 46.75 15.25 71.75v356c0 8.667-3.167 16.167-9.5 22.5s-13.833 9.5-22.5 9.5-16.167-3.167-22.5-9.5-9.5-13.833-9.5-22.5v-354.5c0-16.667-3.417-32.583-10.25-47.75s-16-28.5-27.5-40-24.833-20.667-40-27.5-31.083-10.25-47.75-10.25h-517c-16.667 0-32.583 3.417-47.75 10.25s-28.5 16-40 27.5-20.667 24.833-27.5 40-10.25 31.083-10.25 47.75v389c0 17.333 3.5 33.583 10.5 48.75s16.333 28.417 28 39.75 25.25 20.333 40.75 27 31.75 10 48.75 10h283.5c8.667 0 16.167 3.167 22.5 9.5s9.5 13.833 9.5 22.5-3.167 16.167-9.5 22.5-13.833 9.5-22.5 9.5h-287.5c-25 0-48.917-5.083-71.75-15.25s-42.833-23.833-60-41-30.833-37.167-41-60-15.25-46.75-15.25-71.75v-392c0-25 5.0833-48.917 15.25-71.75s23.833-42.833 41-60 37.167-30.833 60-41 46.75-15.25 71.75-15.25zm-137 511c-3.333 9.667-8 18.5-14 26.5s-13 14.833-21 20.5-16.75 10.083-26.25 13.25-19.417 4.75-29.75 4.75h-192c-13 0-25.333-2.5-37-7.5s-21.917-11.917-30.75-20.75-15.75-19.083-20.75-30.75-7.5-24-7.5-37v-192c0-13 2.5-25.333 7.5-37s11.917-21.917 20.75-30.75 19.083-15.75 30.75-20.75 24-7.5 37-7.5h192c10.333 0 20.25 1.583 29.75 4.75s18.25 7.583 26.25 13.25 15 12.5 21 20.5 10.667 16.833 14 26.5c5.333-4 10.583-8 15.75-12s10.583-7.75 16.25-11.25 11.5-6.333 17.5-8.5 12.5-3.25 19.5-3.25c9 0 17.333 1.667 25 5s14.417 7.917 20.25 13.75 10.417 12.583 13.75 20.25 5 16 5 25v196c0 8.667-1.667 16.917-5 24.75s-7.917 14.667-13.75 20.5-12.667 10.417-20.5 13.75-16.083 5-24.75 5c-7 0-13.5-1.083-19.5-3.25s-11.833-5-17.5-8.5-11.083-7.25-16.25-11.25-10.417-8-15.75-12zm-59-223c0-8.667-3.167-16.167-9.5-22.5s-13.833-9.5-22.5-9.5h-192c-8.667 0-16.167 3.167-22.5 9.5s-9.5 13.833-9.5 22.5v192c0 8.667 3.167 16.167 9.5 22.5s13.833 9.5 22.5 9.5h192c8.667 0 16.167-3.167 22.5-9.5s9.5-13.833 9.5-22.5zm128-2-64 46v104l64 46zm256 450c0 8.667-3.167 16.167-9.5 22.5s-13.833 9.5-22.5 9.5h-96v96c0 8.67-3.167 16.17-9.5 22.5s-13.833 9.5-22.5 9.5-16.167-3.17-22.5-9.5-9.5-13.83-9.5-22.5v-96h-94c-8.667 0-16.167-3.167-22.5-9.5s-9.5-13.833-9.5-22.5 3.167-16.167 9.5-22.5 13.833-9.5 22.5-9.5h94v-96c0-8.667 3.167-16.167 9.5-22.5s13.833-9.5 22.5-9.5 16.167 3.167 22.5 9.5 9.5 13.833 9.5 22.5v96h96c8.667 0 16.167 3.167 22.5 9.5s9.5 13.833 9.5 22.5z" fill="#fff"></path></svg>

<!-- Exported by Character Map UWP -->
<svg height="100%" viewBox="64 128 896 896" width="100%" xmlns="http://www.w3.org/2000/svg" xmlns:xlink="http://www.w3.org/1999/xlink">
  <path d="M772,128C797,128 820.917,133.083 843.75,143.25C866.583,153.417 886.583,167.083 903.75,184.25C920.917,201.417 934.583,221.417 944.75,244.25C954.917,267.083 960,291 960,316L960,672C960,680.667 956.833,688.167 950.5,694.5C944.167,700.833 936.667,704 928,704C919.333,704 911.833,700.833 905.5,694.5C899.167,688.167 896,680.667 896,672L896,317.5C896,300.833 892.583,284.917 885.75,269.75C878.917,254.583 869.75,241.25 858.25,229.75C846.75,218.25 833.417,209.083 818.25,202.25C803.083,195.417 787.167,192 770.5,192L253.5,192C236.833,192 220.917,195.417 205.75,202.25C190.583,209.083 177.25,218.25 165.75,229.75C154.25,241.25 145.083,254.583 138.25,269.75C131.417,284.917 128,300.833 128,317.5L128,706.5C128,723.833 131.5,740.083 138.5,755.25C145.5,770.417 154.833,783.667 166.5,795C178.167,806.333 191.75,815.333 207.25,822C222.75,828.667 239,832 256,832L539.5,832C548.167,832 555.667,835.167 562,841.5C568.333,847.833 571.5,855.333 571.5,864C571.5,872.667 568.333,880.167 562,886.5C555.667,892.833 548.167,896 539.5,896L252,896C227,896 203.083,890.917 180.25,880.75C157.417,870.583 137.417,856.917 120.25,839.75C103.083,822.583 89.4167,802.583 79.25,779.75C69.0833,756.917 64,733 64,708L64,316C64,291 69.0833,267.083 79.25,244.25C89.4167,221.417 103.083,201.417 120.25,184.25C137.417,167.083 157.417,153.417 180.25,143.25C203.083,133.083 227,128 252,128ZM635,639C631.667,648.667 627,657.5 621,665.5C615,673.5 608,680.333 600,686C592,691.667 583.25,696.083 573.75,699.25C564.25,702.417 554.333,704 544,704L352,704C339,704 326.667,701.5 315,696.5C303.333,691.5 293.083,684.583 284.25,675.75C275.417,666.917 268.5,656.667 263.5,645C258.5,633.333 256,621 256,608L256,416C256,403 258.5,390.667 263.5,379C268.5,367.333 275.417,357.083 284.25,348.25C293.083,339.417 303.333,332.5 315,327.5C326.667,322.5 339,320 352,320L544,320C554.333,320 564.25,321.583 573.75,324.75C583.25,327.917 592,332.333 600,338C608,343.667 615,350.5 621,358.5C627,366.5 631.667,375.333 635,385C640.333,381 645.583,377 650.75,373C655.917,369 661.333,365.25 667,361.75C672.667,358.25 678.5,355.417 684.5,353.25C690.5,351.083 697,350 704,350C713,350 721.333,351.667 729,355C736.667,358.333 743.417,362.917 749.25,368.75C755.083,374.583 759.667,381.333 763,389C766.333,396.667 768,405 768,414L768,610C768,618.667 766.333,626.917 763,634.75C759.667,642.583 755.083,649.417 749.25,655.25C743.417,661.083 736.583,665.667 728.75,669C720.917,672.333 712.667,674 704,674C697,674 690.5,672.917 684.5,670.75C678.5,668.583 672.667,665.75 667,662.25C661.333,658.75 655.917,655 650.75,651C645.583,647 640.333,643 635,639ZM576,416C576,407.333 572.833,399.833 566.5,393.5C560.167,387.167 552.667,384 544,384L352,384C343.333,384 335.833,387.167 329.5,393.5C323.167,399.833 320,407.333 320,416L320,608C320,616.667 323.167,624.167 329.5,630.5C335.833,636.833 343.333,640 352,640L544,640C552.667,640 560.167,636.833 566.5,630.5C572.833,624.167 576,616.667 576,608ZM704,414L640,460L640,564L704,610ZM960,864C960,872.667 956.833,880.167 950.5,886.5C944.167,892.833 936.667,896 928,896L832,896L832,992C832,1000.67 828.833,1008.17 822.5,1014.5C816.167,1020.83 808.667,1024 800,1024C791.333,1024 783.833,1020.83 777.5,1014.5C771.167,1008.17 768,1000.67 768,992L768,896L674,896C665.333,896 657.833,892.833 651.5,886.5C645.167,880.167 642,872.667 642,864C642,855.333 645.167,847.833 651.5,841.5C657.833,835.167 665.333,832 674,832L768,832L768,736C768,727.333 771.167,719.833 777.5,713.5C783.833,707.167 791.333,704 800,704C808.667,704 816.167,707.167 822.5,713.5C828.833,719.833 832,727.333 832,736L832,832L928,832C936.667,832 944.167,835.167 950.5,841.5C956.833,847.833 960,855.333 960,864Z" fill="#FFFFFF" fill-opacity="1">
  </path>
</svg>
